!!!!SEGMENT: pl-gd--ee-2628--007-015_stabile-annibale--sacrarum-modulationum-cantatibus-organis-a-8.krn
!!!cenid: 15xx:1104
!!!COM: Stabile, Annibale
!!!COM-rismID: pe30009662
!!!CDT: ~1535-1595/04
!!!CNT: Italian
!!!GTL: Sacrarum modulationum
!!!OTL: Cantatibus organis a 8
!!!OMV: 015
!!!PDT: 1585
!!!AGN:
!!!SMS-siglum: PL-GD
!!!SMS-shelfmark: Ee 2628
!!!SMS-shelfwork: 007-015 G
!!!SMS-variant:
!!!SMS-altvar:
!!!NIFC-rismSourceID: 990060529
!!!NIFC-islandoraID: pl-gd:66139
!!!URL-pdf-islandora: https://repozytorium.nifc.pl/islandora/object/pl-gd%3A66139/datastream/PDF/view
!!!URL-scan: https://polish.musicsources.pl/pl/lokalizacje/galeria/klocki-introligatorskie/673 @EN{Scan on Polish Music Sources Website} @PL{Skany w portalu Dziedzictwo Muzyki Polskiej w otwartym dostępie}
!!!ONB-nifc: UWAGA: Cantus: s. 102-113, Tenore: s. 258-269, Basso: s. 414-425, Quinto: s. 736-747, Sextus: s. 624-632. Dla głosu Alto proszę skorzystać z https://pbc.gda.pl/dlibra/publication/87583/edition/79412/content, s. 25-48. Uwaga: utwory podzielone wg spisu treści dostępnych na końcu ksiąg – proszę sprawdzać sąsiednie tytuły i zwracać uwagę na liczbę głosów. Głosy Quinto i Sextus proszę umieszczać wg ambitusu (może się różnić w zależności od utworu).
!!!AIN: 2 alto 2 bass 2 soprn 1 tenor 1 vox
!!!key: C
**kern	**text	**kern	**text	**kern	**text	**kern	**text	**kern	**text	**kern	**text	**kern	**text	**kern	**text
*part8	*part8	*part7	*part7	*part6	*part6	*part5	*part5	*part4	*part4	*part3	*part3	*part2	*part2	*part1	*part1
*staff8	*staff8	*staff7	*staff7	*staff6	*staff6	*staff5	*staff5	*staff4	*staff4	*staff3	*staff3	*staff2	*staff2	*staff1	*staff1
*I"BASSVS 2.	*	*I"BASSVS	*	*I"TENOR	*	*I"SEXTVS	*	*I"ALTVS Secundus	*	*I"ALTVS	*	*I"CANTVS 2.	*	*I"CANTVS	*
*I'Coro B 2	*	*I'Coro B 1	*	*I'Coro T	*	*I'V 6	*	*I'Coro A 2	*	*I'Coro A 1	*	*I'Coro S 2	*	*I'Coro S 1	*
*ICvox	*	*ICvox	*	*ICvox	*	*ICvox	*	*ICvox	*	*ICvox	*	*ICvox	*	*ICvox	*
*Ibass	*	*Ibass	*	*Itenor	*	*Ivox	*	*Ialto	*Ialto	*Ialto	*	*Isoprn	*	*Isoprn	*
*clefF4	*	*clefF4	*	*clefC4	*	*clefC4	*	*clefC3	*	*clefC3	*	*clefC1	*	*clefC1	*
*k[]	*	*k[]	*	*k[]	*	*k[]	*	*k[]	*	*k[]	*	*k[]	*	*k[]	*
*C:	*	*C:	*	*C:	*	*C:	*	*C:	*	*C:	*	*C:	*	*C:	*
*M2/1	*	*M2/1	*	*M2/1	*	*M2/1	*	*M2/1	*	*M2/1	*	*M2/1	*	*M2/1	*
*met(C|)	*	*met(C|)	*	*met(C|)	*	*met(C|)	*	*met(C|)	*	*met(C|)	*	*met(C|)	*	*met(C|)	*
=1-	=1-	=1-	=1-	=1-	=1-	=1-	=1-	=1-	=1-	=1-	=1-	=1-	=1-	=1-	=1-
!LO:TX:a:i:t=Octo Vocum.	!	!LO:TX:a:i:t=Octo Vocum.	!	!LO:TX:a:i:t=Octo Vocum.	!	!LO:TX:a:i:t=Octo Vocum.	!	!LO:TX:a:i:t=Octo vocum.	!	!LO:TX:a:i:t=Octo Vocum.	!	!LO:TX:a:i:t=Octo Vocum.	!	!LO:TX:a:i:t=Octo Vocum.	!
0r	.	00r	.	00r	.	00r	.	00r	.	0r	.	1r	.	1g	CAn-
.	.	.	.	.	.	.	.	.	.	.	.	1g	CAn-	4g/	-tan-
.	.	.	.	.	.	.	.	.	.	.	.	.	.	4a\	.
.	.	.	.	.	.	.	.	.	.	.	.	.	.	4b\	.
.	.	.	.	.	.	.	.	.	.	.	.	.	.	4cc\	.
=2-	=2-	=2-	=2-	=2-	=2-	=2-	=2-	=2-	=2-	=2-	=2-	=2-	=2-	=2-	=2-
1r	.	.	.	.	.	.	.	.	.	1g	CAn-	4g/	-tan-	2dd\	.
.	.	.	.	.	.	.	.	.	.	.	.	4a\	.	.	.
.	.	.	.	.	.	.	.	.	.	.	.	4b\	.	2dd\	-ti-
.	.	.	.	.	.	.	.	.	.	.	.	4cc\	.	.	.
2r	.	.	.	.	.	.	.	.	.	4g\	-tan-	2dd\	.	2b\	-bus
.	.	.	.	.	.	.	.	.	.	4f\	.	.	.	.	.
2C/	CAn-	.	.	.	.	.	.	.	.	4e\	.	2cc\	-ti-	1ee\	or-
.	.	.	.	.	.	.	.	.	.	4d\	.	.	.	.	.
=3-	=3-	=3-	=3-	=3-	=3-	=3-	=3-	=3-	=3-	=3-	=3-	=3-	=3-	=3-	=3-
4C/	-tan-	00r	.	1G	CAn-	00r	.	00r	.	2c/	.	1cc	-bus	.	.
4D/	.	.	.	.	.	.	.	.	.	.	.	.	.	.	.
4E\	.	.	.	.	.	.	.	.	.	2g\	-ti-	.	.	2ee\	-ga-
4F\	.	.	.	.	.	.	.	.	.	.	.	.	.	.	.
1.G	.	.	.	4G/	-tan-	.	.	.	.	1g	-bus	2.b\	or-	0dd	-nis
.	.	.	.	4A/	.	.	.	.	.	.	.	.	.	.	.
.	.	.	.	4B\	.	.	.	.	.	.	.	.	.	.	.
.	.	.	.	4c\	.	.	.	.	.	.	.	4a\	.	.	.
=4-	=4-	=4-	=4-	=4-	=4-	=4-	=4-	=4-	=4-	=4-	=4-	=4-	=4-	=4-	=4-
.	.	.	.	2d\	.	.	.	.	.	2r	.	4g/	.	.	.
.	.	.	.	.	.	.	.	.	.	.	.	4a\	.	.	.
2G\	-ti-	.	.	2B\	-ti-	.	.	.	.	2g\	Can-	4b\	.	.	.
.	.	.	.	.	.	.	.	.	.	.	.	4cc\	.	.	.
2D/	-bus	.	.	2A/	-bus	.	.	.	.	2f#X\	-tan-	2.dd\	.	1r	.
2.G\	or-	.	.	2.B\	or-	.	.	.	.	2g\	-ti-	.	.	.	.
.	.	.	.	.	.	.	.	.	.	.	.	4cc\	.	.	.
=5-	=5-	=5-	=5-	=5-	=5-	=5-	=5-	=5-	=5-	=5-	=5-	=5-	=5-	=5-	=5-
.	.	0r	.	.	.	1r	.	2g\	CAn-	2d\	-bus	2b\	.	1r	.
4F\	.	.	.	8c\	.	.	.	.	.	.	.	.	.	.	.
.	.	.	.	8d\	.	.	.	.	.	.	.	.	.	.	.
*	*	*	*	*lig	*	*	*	*	*	*	*	*	*	*	*ij
4E\	.	.	.	1e	.	.	.	4g\	-tan-	2.g\	or-	2b\	-ga-	.	.
4D/	.	.	.	.	.	.	.	4f\	.	.	.	.	.	.	.
1.C	.	.	.	.	.	2r	.	4e\	.	.	.	1cc	-nis	1g	CAn-
.	.	.	.	.	.	.	.	4d\	.	4fny\	.	.	.	.	.
*	*	*	*	*col	*	*	*	*	*	*	*	*	*	*	*
.	.	.	.	2.c\	.	1G/	CAn-	1e\	.	4e\	.	.	.	.	.
.	.	.	.	.	.	.	.	.	.	4d\	.	.	.	.	.
*	*	*	*	*Xlig	*	*	*	*	*	*	*	*custos:dd	*	*	*
!	!	!	!	!	!	!	!	!	!	!	!	!LO:LB:g=original	!	!	!
=6-	=6-	=6-	=6-	=6-	=6-	=6-	=6-	=6-	=6-	=6-	=6-	=6-	=6-	=6-	=6-
.	.	1r	.	.	.	.	.	.	.	2c/	.	2r	.	4g/	-tan-
.	.	.	.	4c\	-ga-	.	.	.	.	.	.	.	.	4a\	.
*	*	*	*	*Xcol	*	*	*	*	*	*	*	*	*	*	*
2GG/	-ga-	.	.	2d\	-nis	4G/	-tan-	2d\	-ti-	2B/	-ga-	2dd\	Cę-	4b\	.
.	.	.	.	.	.	4A/	.	.	.	.	.	.	.	4cc\	.
*	*	*	*	*	*	*	*	*	*	*custos:B	*	*	*	*	*
!	!	!	!	!	!	!	!	!	!	!LO:LB:g=original	!	!	!	!	!
1GG	-nis	1G	CAn-	1r	.	4B\	.	2d\	-bus	0B	-nis	2.b\	-ci-	2dd\	.
.	.	.	.	.	.	4c\	.	.	.	.	.	.	.	.	.
.	.	.	.	.	.	2.d\	.	1g\	or-	.	.	.	.	2dd\	-ti-
.	.	.	.	.	.	.	.	.	.	.	.	4b\	-li-	.	.
*	*	*	*	*	*	*	*	*	*	*	*	*	*	*custos:b	*
!	!	!	!	!	!	!	!	!	!	!	!	!	!	!LO:LB:g=original	!
=7-	=7-	=7-	=7-	=7-	=7-	=7-	=7-	=7-	=7-	=7-	=7-	=7-	=7-	=7-	=7-
1r	.	4G\	-tan-	0r	.	.	.	.	.	.	.	2g/	-a	2b\	-bus
.	.	4F\	.	.	.	4d\	-ti-	.	.	.	.	.	.	.	.
*	*	*	*	*	*	*	*	*	*	*	*	*	*ij	*	*
.	.	4E\	.	.	.	2G/	-bus	2g\	-ga-	.	.	2b\	Cę-	1ee	or-
.	.	4D/	.	.	.	.	.	.	.	.	.	.	.	.	.
2r	.	2C/	.	.	.	2.G/	or-	1g	-nis	1e	Cę-	2.cc\	-ci-	.	.
2C/	Can-	2C/	-ti-	.	.	.	.	.	.	.	.	.	.	2ee\	-ga-
.	.	.	.	.	.	4F/	.	.	.	.	.	4dd\	.	.	.
*custos:C	*	*	*	*	*	*	*	*	*	*	*	*	*	*	*
!LO:LB:g=original	!	!	!	!	!	!	!	!	!	!	!	!	!	!	!
=8-	=8-	=8-	=8-	=8-	=8-	=8-	=8-	=8-	=8-	=8-	=8-	=8-	=8-	=8-	=8-
4C/	-tan-	1C	-bus	2r	.	2E/	.	2G/	Can-	1.g	-ci-	2.ee\	.	1cc	-nis
4D/	.	.	.	.	.	.	.	.	.	.	.	.	.	.	.
4E\	.	.	.	2G/	Can-	2E/	-ga-	4G/	-tan-	.	.	.	.	.	.
4F\	.	.	.	.	.	.	.	4A/	.	.	.	8dd\	.	.	.
.	.	.	.	.	.	.	.	.	.	.	.	8cc\	.	.	.
*	*	*	*	*custos:G	*	*	*	*	*	*	*	*	*	*	*
!	!	!	!	!LO:LB:g=original	!	!	!	!	!	!	!	!	!	!	!
2.G\	.	1.GG	or-	4G/	-tan-	1D	-nis	4B/	.	.	.	1.b	.	2r	.
.	.	.	.	4A/	.	.	.	4c/	.	.	.	.	.	.	.
*	*	*	*	*	*	*	*	*	*	*	*	*	*	*	*Xij
.	.	.	.	4B\	.	.	.	1d\	.	2g\	-li-	.	.	2dd\	Cę-
4G\	-ti-	.	.	4c\	.	.	.	.	.	.	.	.	.	.	.
=9-	=9-	=9-	=9-	=9-	=9-	=9-	=9-	=9-	=9-	=9-	=9-	=9-	=9-	=9-	=9-
2D/	-bus	.	.	2.d\	.	1G	Cę-	.	.	1g	-a	.	.	1.dd	-ci-
2.D/	or-	2GG/	-ga-	.	.	.	.	2G/	-ti-	.	.	2b\	-li-	.	.
.	.	.	.	4d\	-ti-	.	.	.	.	.	.	.	.	.	.
*	*	*	*	*	*	*	*	*custos:A	*	*	*	*	*	*	*
!	!	!	!	!	!	!	!	!LO:LB:g=original	!	!	!	!	!	!	!
.	.	0D	-nis	2d\	-bus	1.F	-ci-	1A	-bus	1r	.	1a	-a	.	.
4E\	.	.	.	.	.	.	.	.	.	.	.	.	.	.	.
4F\	.	.	.	1d\	or-	.	.	.	.	.	.	.	.	4cc\	.
4G\	.	.	.	.	.	.	.	.	.	.	.	.	.	4b\	.
=10-	=10-	=10-	=10-	=10-	=10-	=10-	=10-	=10-	=10-	=10-	=10-	=10-	=10-	=10-	=10-
*	*	*	*	*	*	*	*	*	*	*lig	*	*	*Xij	*	*
2A\	.	.	.	.	.	.	.	2r	.	1f	Cę-	1r	.	2a\	.
2A\	-ga-	.	.	2d\	-ga-	2D/	-li-	2d\	Cę-	.	.	.	.	2a\	-li-
*	*	*	*	*	*	*custos:D	*	*	*	*	*	*	*	*	*
!	!	!	!	!	!	!LO:LB:g=original	!	!	!	!	!	!	!	!	!
2G\	-nis	1GG	Cę-	2B\	-nis	2D/	-a	4d\	-ci-	1g	.	2r	.	2b\	-a
.	.	.	.	.	.	.	.	4c/	.	.	.	.	.	.	.
2G\	Cę-	.	.	2G/	Cę-	2d\	Cę-	4B/	.	.	.	2b\	Cę-	2dd\	Cę-
.	.	.	.	.	.	.	.	4A/	.	.	.	.	.	.	.
*	*	*	*	*	*	*	*	*	*	*Xlig	*	*	*	*	*
=11-	=11-	=11-	=11-	=11-	=11-	=11-	=11-	=11-	=11-	=11-	=11-	=11-	=11-	=11-	=11-
4G\	-ci-	1.C	-ci-	2E/	-ci-	2.c\	-ci-	2G/	.	1.g	-ci-	1.cc	-ci-	1.ee	-ci-
4F\	.	.	.	.	.	.	.	.	.	.	.	.	.	.	.
4E\	.	.	.	2C/	-li-	.	.	2G/	-li-	.	.	.	.	.	.
4D/	.	.	.	.	.	4c\	-li-	.	.	.	.	.	.	.	.
*custos:E	*	*	*	*	*	*	*	*	*	*	*	*	*	*	*
!LO:LB:g=original	!	!	!	!	!	!	!	!	!	!	!	!	!	!	!
2E\	.	.	.	1c	-a	0.G	-a	2.G/	-a	.	.	.	.	.	.
2C/	-li-	2C/	-li-	.	.	.	.	.	.	2g\	-li-	2cc\	-li-	2ee\	-li-
.	.	.	.	.	.	.	.	4A/	.	.	.	.	.	.	.
=12-	=12-	=12-	=12-	=12-	=12-	=12-	=12-	=12-	=12-	=12-	=12-	=12-	=12-	=12-	=12-
1D	-a	0GG	-a	1r	.	.	.	0B	.	1g	-a	1b	-a	0dd	-a
*	*	*	*	*	*	*	*	*	*	*	*	*custos:b	*	*	*
!	!	!	!	!	!	!	!	!	!	!	!	!LO:LB:g=original	!	!	!
2r	.	.	.	1d	So-	.	.	.	.	2r	.	2r	.	.	.
1G\	So-	.	.	.	.	.	.	.	.	1g\	So-	1b\	So-	.	.
*	*	*custos:D	*	*	*	*	*	*	*	*	*	*	*	*	*
=13-	=13-	=13-	=13-	=13-	=13-	=13-	=13-	=13-	=13-	=13-	=13-	=13-	=13-	=13-	=13-
.	.	00r	.	2e\	-li	00r	.	0r	.	.	.	.	.	0r	.
2A\	-li	.	.	2.c\	Do-	.	.	.	.	2e\	-li	2cc\	-li	.	.
2.F\	Do-	.	.	.	.	.	.	.	.	2.f\	Do-	2.a\	Do-	.	.
.	.	.	.	4c\	-mi-	.	.	.	.	.	.	.	.	.	.
*	*	*	*	*custos:c	*	*	*	*	*	*	*	*	*	*	*
!	!	!	!	!LO:LB:g=original	!	!	!	!	!	!	!	!	!	!	!
.	.	.	.	2c\	-no	.	.	.	.	.	.	.	.	.	.
4F\	-mi-	.	.	.	.	.	.	.	.	4f\	-mi-	4a\	-mi-	.	.
=14-	=14-	=14-	=14-	=14-	=14-	=14-	=14-	=14-	=14-	=14-	=14-	=14-	=14-	=14-	=14-
2F\	-no	.	.	2d\	de-	.	.	2r	.	2f\	-no	2a\	-no	1r	.
2E\	de-	.	.	2e\	-can-	.	.	2g\	So-	2g\	de-	1cc	de-	.	.
2F\	-can-	.	.	1d	-ta-	.	.	2a\	-li	2f\	-can-	.	.	2r	.
2G\	-ta-	.	.	.	.	.	.	2.g\	Do-	2d\	-ta-	2b\	-can-	2dd\	So-
*	*	*	*	*	*	*	*	*	*	*custos:g	*	*	*	*custos:ee	*
!	!	!	!	!	!	!	!	!	!	!LO:LB:g=original	!	!	!	!LO:LB:g=original	!
=15-	=15-	=15-	=15-	=15-	=15-	=15-	=15-	=15-	=15-	=15-	=15-	=15-	=15-	=15-	=15-
*lig	*	*	*	*	*	*	*	*	*	*	*	*	*	*	*
1C	-bat	0r	.	4c\	-bat	1r	.	.	.	2g\	-bat	2.cc\	-ta-	2ee\	-li
.	.	.	.	4d\	.	.	.	4g\	-mi-	.	.	.	.	.	.
.	.	.	.	4e\	.	.	.	2g\	-no	2G/	di-	.	.	2.cc\	Do-
.	.	.	.	4c\	.	.	.	.	.	.	.	4ee\	-bat	.	.
*	*	*	*	*	*	*	*	*custos:g	*	*	*	*	*	*	*
!	!	!	!	!	!	!	!	!LO:LB:g=original	!	!	!	!	!	!	!
1GG	.	.	.	2d\	.	2r	.	1.g	de-	1G	-cens	1dd	di-	.	.
.	.	.	.	.	.	.	.	.	.	.	.	.	.	4cc\	-mi-
.	.	.	.	2G/	di-	2d\	So-	.	.	.	.	.	.	2b\	-no
*Xlig	*	*	*	*	*	*	*	*	*	*	*	*	*	*	*
=16-	=16-	=16-	=16-	=16-	=16-	=16-	=16-	=16-	=16-	=16-	=16-	=16-	=16-	=16-	=16-
1C	di-	1r	.	0G	-cens	2e\	-li	.	.	0r	.	1cc	-cens	1cc	de-
.	.	.	.	.	.	2.c\	Do-	2e\	-can-	.	.	.	.	.	.
1GG	-cens	2r	.	.	.	.	.	2.d\	-ta-	.	.	0r	.	2dd\	-can-
.	.	.	.	.	.	4c\	-mi-	.	.	.	.	.	.	.	.
.	.	1D\	So-	.	.	2B\	-no	.	.	.	.	.	.	1dd\	-ta-
.	.	.	.	.	.	.	.	4e\	.	.	.	.	.	.	.
=17-	=17-	=17-	=17-	=17-	=17-	=17-	=17-	=17-	=17-	=17-	=17-	=17-	=17-	=17-	=17-
0r	.	.	.	1r	.	2A/	de-	2f\	.	2r	.	.	.	.	.
.	.	2E\	-li	.	.	2G/	-can-	2e\	-bat	1g	So-	.	.	2cc\	-bat
.	.	2.D/	Do-	2r	.	1A	-ta-	1r	.	.	.	2r	.	4dd\	di-
.	.	.	.	.	.	.	.	.	.	.	.	.	.	8cc\	.
.	.	.	.	.	.	.	.	.	.	.	.	.	.	8b\	.
.	.	.	.	1d\	So-	.	.	.	.	2f#X\	-li	1dd\	Do-	2a\	.
.	.	4D/	-mi-	.	.	.	.	.	.	.	.	.	.	.	.
=18-	=18-	=18-	=18-	=18-	=18-	=18-	=18-	=18-	=18-	=18-	=18-	=18-	=18-	=18-	=18-
1r	.	2BB/	-no	.	.	2.G/	-bat	0r	.	2.g\	Do-	.	.	2b\	-cens
.	.	2C/	de-	2c\	-li	.	.	.	.	.	.	2ee\	-li	2.g/	de-
.	.	.	.	.	.	4A/	.	.	.	4g\	-mi-	.	.	.	.
*	*	*	*	*	*	*custos:B	*	*	*	*	*	*	*	*	*
!	!	!	!	!	!	!LO:LB:g=original	!	!	!	!	!	!	!	!	!
1G	de-	2GG/	-can-	2.B\	Do-	4B\	.	.	.	2g\	-no	2.dd\	Do-	.	.
.	.	.	.	.	.	4c\	.	.	.	.	.	.	.	4g/	-can-
.	.	2.G\	-ta-	.	.	1d\	.	.	.	1g\	de-	.	.	2b\	-ta-
.	.	.	.	4B\	-mi-	.	.	.	.	.	.	4dd\	-mi-	.	.
=19-	=19-	=19-	=19-	=19-	=19-	=19-	=19-	=19-	=19-	=19-	=19-	=19-	=19-	=19-	=19-
2GG/	-can-	.	.	2B\	-no	.	.	2r	.	.	.	2b\	-no	2dd\	-bat
.	.	4F\	.	.	.	.	.	.	.	.	.	.	.	.	.
2.C/	-ta-	4E\	.	1e	de-	1G	di-	2g\	de-	2g\	-can-	2.cc\	de-	1ee	di-
.	.	4D/	.	.	.	.	.	.	.	.	.	.	.	.	.
.	.	2C/	.	.	.	.	.	1e	-can-	2g\	-ta-	.	.	.	.
4D/	.	.	.	.	.	.	.	.	.	.	.	4b\	.	.	.
4E\	.	2C/	-bat	2c\	-can-	2c\	-cens	.	.	2e\	-bat	4a\	.	2ee\	-cens
8D\	.	.	.	.	.	.	.	.	.	.	.	4g/	.	.	.
8E\	.	.	.	.	.	.	.	.	.	.	.	.	.	.	.
=20-	=20-	=20-	=20-	=20-	=20-	=20-	=20-	=20-	=20-	=20-	=20-	=20-	=20-	=20-	=20-
4F\	.	0D	di-	4A/	-ta-	2r	.	2d\	-ta-	1r	.	2.f/	.	2r	.
4G\	.	.	.	4G/	.	.	.	.	.	.	.	.	.	.	.
*	*	*	*	*	*	*	*	*	*	*	*	*	*	*	*ij
4A\	.	.	.	4F/	.	1A	de-	2.f\	-bat	.	.	.	.	1a	de-
4G\	.	.	.	4E/	.	.	.	.	.	.	.	4g/	-can-	.	.
*custos:F	*	*	*	*	*	*	*	*	*	*	*	*	*	*	*
!LO:LB:g=original	!	!	!	!	!	!	!	!	!	!	!	!	!	!	!
4F\	.	.	.	2.D/	.	.	.	.	.	0.d	di-	2a\	-ta-	.	.
4E\	.	.	.	.	.	.	.	4g\	.	.	.	.	.	.	.
4D/	.	.	.	.	.	2A/	-can-	1a\	.	.	.	2a\	-bat	2f/	-can-
4C/	.	.	.	4E/	.	.	.	.	.	.	.	.	.	.	.
*	*	*	*	*custos:F	*	*	*	*	*	*	*	*custos:dd	*	*	*
!	!	!	!	!LO:LB:g=original	!	!	!	!	!	!	!	!LO:LB:g=original	!	!	!
=21-	=21-	=21-	=21-	=21-	=21-	=21-	=21-	=21-	=21-	=21-	=21-	=21-	=21-	=21-	=21-
2.BB-X/	.	0D	-cens	4F/	.	2B-X\	-ta-	.	.	.	.	0dd	di-	2f/	-ta-
.	.	.	.	4D/	-bat	.	.	.	.	.	.	.	.	.	.
.	.	.	.	2.d\	di-	2B-\	-bat	2.g\	di-	.	.	.	.	2g/	-bat
4GG/	-bat	.	.	.	.	.	.	.	.	.	.	.	.	.	.
1D	di-	.	.	.	.	4A/	di-	.	.	.	.	.	.	1a	di-
.	.	.	.	8c\	.	4D/	.	8f#X\	.	.	.	.	.	.	.
.	.	.	.	8B\	.	.	.	8e\	.	.	.	.	.	.	.
.	.	.	.	2A/	.	2d\	.	2f#X\	.	.	.	.	.	.	.
*	*	*	*	*	*	*	*	*	*	*	*	*	*	*	*
=22-	=22-	=22-	=22-	=22-	=22-	=22-	=22-	=22-	=22-	=22-	=22-	=22-	=22-	=22-	=22-
0GG	-cens	00r	.	0G	-cens	1Bny	-cens	1g	-cens	0d	-cens	1dd	-cens	1b	-cens
*	*	*	*	*	*	*	*	*	*	*	*	*	*	*	*Xij
.	.	.	.	.	.	1r	.	2r	.	.	.	1.b	Fi-	1.dd	Fi-
.	.	.	.	.	.	.	.	1g\	Fi-	.	.	.	.	.	.
=23-	=23-	=23-	=23-	=23-	=23-	=23-	=23-	=23-	=23-	=23-	=23-	=23-	=23-	=23-	=23-
00r	.	.	.	00r	.	00r	.	.	.	0r	.	.	.	.	.
.	.	.	.	.	.	.	.	2c/	-at	.	.	2cc\	-at	2ee\	-at
*	*	*	*	*	*	*	*	*	*	*	*	*	*	*custos:dd	*
!	!	!	!	!	!	!	!	!	!	!	!	!	!	!LO:LB:g=original	!
.	.	.	.	.	.	.	.	2.g\	Do-	.	.	2.b\	Do-	2.dd\	Do-
.	.	.	.	.	.	.	.	4g\	-mi-	.	.	4b\	-mi-	4dd\	-mi-
=24-	=24-	=24-	=24-	=24-	=24-	=24-	=24-	=24-	=24-	=24-	=24-	=24-	=24-	=24-	=24-
.	.	00r	.	.	.	.	.	2fny\	-ne	2r	.	2a\	-ne	2dd\	-ne
.	.	.	.	.	.	.	.	2e\	cor	1g	Fi-	2g/	cor	2cc\	cor
*	*	*	*	*	*	*	*	*custos:d	*	*	*	*	*	*	*
!	!	!	!	!	!	!	!	!LO:LB:g=original	!	!	!	!	!	!	!
.	.	.	.	.	.	.	.	1d	me-	.	.	1a	me-	1dd	me-
.	.	.	.	.	.	.	.	.	.	2f#X\	-at	.	.	.	.
*	*	*custos:G	*	*	*	*	*	*	*	*	*	*	*	*	*
!	!	!LO:LB:g=original	!	!	!	!	!	!	!	!	!	!	!	!	!
=25-	=25-	=25-	=25-	=25-	=25-	=25-	=25-	=25-	=25-	=25-	=25-	=25-	=25-	=25-	=25-
0r	.	.	.	00r	.	00r	.	2G/	-um	2.g\	Do-	2b\	-um	2dd\	-um
*	*	*	*	*	*	*	*	*	*	*	*	*	*ij	*	*
.	.	.	.	.	.	.	.	2G/	im-	.	.	1dd	Fi-	2b\	im-
.	.	.	.	.	.	.	.	.	.	4g\	-mi-	.	.	.	.
.	.	.	.	.	.	.	.	2A/	-ma-	2fny\	-ne	.	.	2.a\	-ma-
.	.	.	.	.	.	.	.	2A/	-cu-	2e\	cor	2cc#X\	-at	.	.
.	.	.	.	.	.	.	.	.	.	.	.	.	.	4a\	-cu-
=26-	=26-	=26-	=26-	=26-	=26-	=26-	=26-	=26-	=26-	=26-	=26-	=26-	=26-	=26-	=26-
*	*	*	*	*	*	*	*	*lig	*	*	*	*	*	*	*
1r	.	2r	.	.	.	.	.	1B	-la-	0d	me-	2.dd\	Do-	2.g/	-la-
.	.	1G	Fi-	.	.	.	.	.	.	.	.	.	.	.	.
.	.	.	.	.	.	.	.	.	.	.	.	4dd\	-mi-	4a\	.
2r	.	.	.	.	.	.	.	1G	.	.	.	2dd\	-ne	4b\	.
.	.	.	.	.	.	.	.	.	.	.	.	.	.	4cc\	.
1G\	Fi-	2GG/	-at	.	.	.	.	.	.	.	.	2b\	cor	2.dd\	.
*	*	*	*	*	*	*	*	*Xlig	*	*custos:d	*	*	*	*	*
!	!	!	!	!	!	!	!	!	!	!LO:LB:g=original	!	!	!	!	!
=27-	=27-	=27-	=27-	=27-	=27-	=27-	=27-	=27-	=27-	=27-	=27-	=27-	=27-	=27-	=27-
*	*	*	*	*	*	*	*	*	*	*	*	*lig	*	*	*
.	.	2.D/	Do-	2r	.	1r	.	1A	-tum	1.d	-um	1a	me-	.	.
.	.	.	.	.	.	.	.	.	.	.	.	.	.	8cc\	.
.	.	.	.	.	.	.	.	.	.	.	.	.	.	8b\	.
2F#X\	-at	.	.	1d	Fi-	.	.	.	.	.	.	.	.	2a\	.
.	.	4D/	-mi-	.	.	.	.	.	.	.	.	.	.	.	.
2.G\	Do-	1GG	-ne	.	.	2r	.	1r	.	.	.	1g	.	1b	-tum
.	.	.	.	2B\	-at	1d\	Fi-	.	.	2d\	im-	.	.	.	.
4G\	-mi-	.	.	.	.	.	.	.	.	.	.	.	.	.	.
*	*	*	*	*	*	*	*	*	*	*	*	*Xlig	*	*	*
=28-	=28-	=28-	=28-	=28-	=28-	=28-	=28-	=28-	=28-	=28-	=28-	=28-	=28-	=28-	=28-
2Fny\	-ne	0r	.	2d\	Do-	.	.	2r	.	2f\	-ma-	2a\	-um	00r	.
*	*	*	*	*	*	*	*	*	*	*	*	*	*Xij	*	*
2E\	cor	.	.	2e\	-mi-	2G/	-at	1g	Fi-	2g\	-cu-	2ccny\	im-	.	.
2.D/	me-	.	.	1.A	-ne	2.d\	Do-	.	.	2a\	-la-	2.dd\	-ma-	.	.
.	.	.	.	.	.	.	.	1f\	-at	2A/	-tum	.	.	.	.
4E\	.	.	.	.	.	4d\	-mi-	.	.	.	.	8cc\	.	.	.
.	.	.	.	.	.	.	.	.	.	.	.	8b\	.	.	.
=29-	=29-	=29-	=29-	=29-	=29-	=29-	=29-	=29-	=29-	=29-	=29-	=29-	=29-	=29-	=29-
2F\	.	2r	.	.	.	2c\	-ne	.	.	00r	.	2a\	.	.	.
2G\	.	1G	Fi-	2B\	cor	2B\	cor	1d	Do-	.	.	2g/	-cu-	.	.
*lig	*	*	*	*	*	*	*	*	*	*	*	*lig	*	*	*
1D	-um	.	.	2.d\	me-	1A	me-	.	.	.	.	1a	-la-	.	.
.	.	2F#X\	-at	.	.	.	.	2d\	-mi-	.	.	.	.	.	.
.	.	.	.	4c\	.	.	.	.	.	.	.	.	.	.	.
=30-	=30-	=30-	=30-	=30-	=30-	=30-	=30-	=30-	=30-	=30-	=30-	=30-	=30-	=30-	=30-
1GG	.	2.G\	Do-	2B\	.	2G/	-um	1d	-ne	.	.	1b	.	2r	.
.	.	.	.	2G/	-um	2D/	im-	.	.	.	.	.	.	1dd	Fi-
.	.	4G\	-mi-	.	.	.	.	.	.	.	.	.	.	.	.
*	*	*	*	*	*	*	*	*	*	*	*	*custos:a	*	*	*
!	!	!	!	!	!	!	!	!	!	!	!	!LO:LB:g=original	!	!	!
*Xlig	*	*	*	*	*	*	*	*	*	*	*	*Xlig	*	*	*
*lig	*	*	*	*	*	*custos:A	*	*	*	*	*	*	*	*	*
!	!	!	!	!	!	!LO:LB:g=original	!	!	!	!	!	!	!	!	!
1AA	im-	2Fny\	-ne	0r	.	2A/	-ma-	1r	.	.	.	1a	-tum	.	.
*	*	*	*	*	*	*	*	*	*	*	*	*	*	*	*
.	.	2E\	cor	.	.	2A/	-cu-	.	.	.	.	.	.	2cc#X\	-at
=31-	=31-	=31-	=31-	=31-	=31-	=31-	=31-	=31-	=31-	=31-	=31-	=31-	=31-	=31-	=31-
1BBny	.	1D	me-	.	.	0G	-la-	2r	.	1r	.	0r	.	2.dd\	Do-
.	.	.	.	.	.	.	.	2g\	im-	.	.	.	.	.	.
.	.	.	.	.	.	.	.	.	.	.	.	.	.	4dd\	-mi-
*Xlig	*	*	*	*	*	*	*	*	*	*	*	*	*	*	*
2C/	-ma-	2E\	-um	2r	.	.	.	2e\	-ma-	2r	.	.	.	2ccny\	-ne
2GG/	-cu-	2G\	im-	1d\	Fi-	.	.	2d\	-cu-	1g\	Fi-	.	.	2b\	cor
*custos:D	*	*	*	*	*	*	*	*	*	*	*	*	*	*custos:a	*
!LO:LB:g=original	!	!	!	!	!	!	!	!	!	!	!	!	!	!LO:LB:g=original	!
=32-	=32-	=32-	=32-	=32-	=32-	=32-	=32-	=32-	=32-	=32-	=32-	=32-	=32-	=32-	=32-
*	*	*lig	*	*	*	*	*	*	*	*	*	*	*	*	*
1D	-la-	1A	-ma-	.	.	0D	-tum	1d	-la-	.	.	1r	.	1a	me-
.	.	.	.	2A/	-at	.	.	.	.	2f#X\	-at	.	.	.	.
*	*	*col	*	*	*	*	*	*	*	*	*	*	*	*	*
1GG	-tum	2.G\	.	4.d\	Do-	.	.	1d	-tum	2.g\	Do-	2r	.	1b	-um
.	.	.	.	8d\	-mi-	.	.	.	.	.	.	.	.	.	.
.	.	.	.	4G/	-ne	.	.	.	.	.	.	1dd\	Fi-	.	.
*	*	*Xlig	*	*	*	*	*	*	*	*	*	*	*	*	*
.	.	8F\	.	4G/	cor	.	.	.	.	4g\	-mi-	.	.	.	.
.	.	8E\	.	.	.	.	.	.	.	.	.	.	.	.	.
*	*	*Xcol	*	*custos:A	*	*	*	*	*	*	*	*	*	*	*
!	!	!	!	!LO:LB:g=original	!	!	!	!	!	!	!	!	!	!	!
=33-	=33-	=33-	=33-	=33-	=33-	=33-	=33-	=33-	=33-	=33-	=33-	=33-	=33-	=33-	=33-
00r	.	2D/	.	2A/	me-	0r	.	00r	.	2fny\	-ne	.	.	2r	.
.	.	2E\	-cu-	2G/	-um	.	.	.	.	2e\	cor	2cc#X\	-at	2g/	im-
.	.	2F\	-la-	2r	.	.	.	.	.	1d	me-	2.dd\	Do-	2a\	-ma-
.	.	2G\	.	2G/	im-	.	.	.	.	.	.	.	.	2b\	-cu-
.	.	.	.	.	.	.	.	.	.	.	.	4dd\	-mi-	.	.
=34-	=34-	=34-	=34-	=34-	=34-	=34-	=34-	=34-	=34-	=34-	=34-	=34-	=34-	=34-	=34-
*	*	*lig	*	*	*	*	*	*	*	*	*	*	*	*	*
.	.	1C	.	2G/	-ma-	1r	.	.	.	1e	-um	2ccny\	-ne	4e/	-la-
.	.	.	.	.	.	.	.	.	.	.	.	.	.	4f/	.
.	.	.	.	2E/	-cu-	.	.	.	.	.	.	2b\	cor	2.g/	.
.	.	1D	.	1A	-la-	2r	.	.	.	1r	.	1a	me-	.	.
.	.	.	.	.	.	.	.	.	.	.	.	.	.	8f#X/	.
.	.	.	.	.	.	.	.	.	.	.	.	.	.	8e/	.
.	.	.	.	.	.	2d\	im-	.	.	.	.	.	.	2f#X/	.
*	*	*Xlig	*	*	*	*	*	*	*	*	*	*	*	*	*
=35-	=35-	=35-	=35-	=35-	=35-	=35-	=35-	=35-	=35-	=35-	=35-	=35-	=35-	=35-	=35-
2r	.	1GG	-tum	1G	-tum	2d\	-ma-	0r	.	2r	.	2b\	-um	1g	-tum
2G\	im-	.	.	.	.	2B\	-cu-	.	.	2d\	im-	2g/	im-	.	.
*	*	*	*	*	*	*	*	*	*	*	*	*	*	*	*
2F\	-ma-	0r	.	1r	.	4c\	-la-	.	.	2f\	-ma-	2a\	-ma-	1r	.
.	.	.	.	.	.	4B\	.	.	.	.	.	.	.	.	.
2E\	-cu-	.	.	.	.	4A/	.	.	.	2c/	-cu-	1g\	-cu-	.	.
.	.	.	.	.	.	4G/	.	.	.	.	.	.	.	.	.
=36-	=36-	=36-	=36-	=36-	=36-	=36-	=36-	=36-	=36-	=36-	=36-	=36-	=36-	=36-	=36-
1D	-la-	.	.	2r	.	0A	.	1r	.	0d	-la-	.	.	2r	.
.	.	.	.	2d\	Vt	.	.	.	.	.	.	4f#X/	-la-	1a	Vt
.	.	.	.	.	.	.	.	.	.	.	.	4e/	.	.	.
*	*	*custos:D	*	*	*	*	*	*	*	*	*	*	*	*	*
!	!	!LO:LB:g=original	!	!	!	!	!	!	!	!	!	!	!	!	!
1D	-tum	2r	.	2d\	non	.	.	2r	.	.	.	1f#X	.	.	.
.	.	2D/	Vt	2A/	con-	.	.	1d\	Vt	.	.	.	.	1dd\	non
=37-	=37-	=37-	=37-	=37-	=37-	=37-	=37-	=37-	=37-	=37-	=37-	=37-	=37-	=37-	=37-
2r	.	1G	non	2.B\	-fun-	1G	-tum	.	.	1d	-tum	2g/	-tum	.	.
2GG/	Vt	.	.	.	.	.	.	2.g\	non	.	.	1g	im-	2b\	con-
.	.	.	.	4A/	.	.	.	.	.	.	.	.	.	.	.
2C/	non	2E\	con-	2G/	.	1r	.	.	.	2r	.	.	.	2ee\	-fun-
.	.	.	.	.	.	.	.	2e\	con-	.	.	.	.	.	.
2AA/	con-	2A\	-fun-	2c\	-dar	.	.	.	.	2e\	Vt	2.a\	-ma-	4cc\	-dar
*	*	*	*	*	*	*	*	*	*	*	*	*	*	*	*ij
.	.	.	.	.	.	.	.	2a\	-fun-	.	.	.	.	4a\	Vt
*	*	*	*	*	*ij	*	*	*	*	*custos:d	*	*	*	*	*
!	!	!	!	!	!	!	!	!	!	!LO:LB:g=original	!	!	!	!	!
=38-	=38-	=38-	=38-	=38-	=38-	=38-	=38-	=38-	=38-	=38-	=38-	=38-	=38-	=38-	=38-
2D/	-fun-	0D	-dar	2A/	Vt	2r	.	.	.	4.d\	non	.	.	2f#X/	non
.	.	.	.	.	.	.	.	4d\	-dar	.	.	4a\	-cu-	.	.
.	.	.	.	.	.	.	.	.	.	8c/	.	.	.	.	.
*	*	*	*	*	*	*	*	*custos:d	*ij	*	*	*	*	*	*
!	!	!	!	!	!	!	!	!LO:LB:g=original	!	!	!	!	!	!	!
2GG/	.	.	.	2.d\	non	4r	.	2r	.	4B/	.	4.b\	-la-	2g/	con-
.	.	.	.	.	.	4D/	Vt	.	.	4d\	con-	.	.	.	.
.	.	.	.	.	.	.	.	.	.	.	.	8cc\	.	.	.
1D	.	.	.	.	.	4F#X/	non	2r	.	1d	-fun-	1dd	.	4a\	-fun-
.	.	.	.	4B\	con-	4G/	con-	.	.	.	.	.	.	2g/	.
.	.	.	.	2A/	-fun-	2A/	-fun-	1d\	Vt	.	.	.	.	.	.
.	.	.	.	.	.	.	.	.	.	.	.	.	.	4f#X/	.
*	*	*	*	*	*	*	*	*	*	*	*	*	*	*custos:g	*
!	!	!	!	!	!	!	!	!	!	!	!	!	!	!LO:LB:g=original	!
=39-	=39-	=39-	=39-	=39-	=39-	=39-	=39-	=39-	=39-	=39-	=39-	=39-	=39-	=39-	=39-
1GG	-dar	0r	.	1G	-dar	2B\	-dar	.	.	1d	-dar	1b	-tum	2g/	-dar
*	*	*	*	*	*	*	*ij	*	*	*	*	*	*	*	*
.	.	.	.	.	.	2G/	Vt	2g\	non	.	.	.	.	4r	.
*	*	*	*	*	*Xij	*	*	*	*	*	*	*	*	*	*Xij
.	.	.	.	.	.	.	.	.	.	.	.	.	.	2g/	Vt
*	*	*	*	*	*	*	*	*	*	*	*	*custos:g	*	*	*
!	!	!	!	!	!	!	!	!	!	!	!	!LO:LB:g=original	!	!	!
1r	.	.	.	2r	.	2c\	non	2e\	con-	2r	.	4r	.	.	.
.	.	.	.	.	.	.	.	.	.	.	.	4g/	Vt	2e/	non
*	*	*	*	*	*	*	*	*	*	*	*ij	*	*	*	*
.	.	.	.	4r	.	2A/	con-	2a\	-fun-	2c/	Vt	2cc\	non	.	.
.	.	.	.	4A/	Vt	.	.	.	.	.	.	.	.	2a\	con-
*	*ij	*	*ij	*custos:A	*	*custos:d	*	*	*	*	*	*	*	*	*
!	!	!	!	!LO:LB:g=original	!	!LO:LB:g=original	!	!	!	!	!	!	!	!	!
=40-	=40-	=40-	=40-	=40-	=40-	=40-	=40-	=40-	=40-	=40-	=40-	=40-	=40-	=40-	=40-
2D/	Vt	2r	.	4A/	non	2d\	-fun-	2f\	-dar	2f\	non	2a\	con-	.	.
.	.	.	.	4F/	con-	.	.	.	.	.	.	.	.	2dd\	-fun-
2G\	non	2GG/	Vt	2G/	-fun-	4B\	-dar	4r	.	2d\	con-	2b\	-fun-	.	.
*	*	*	*	*	*	*	*Xij	*	*Xij	*	*	*	*	*	*
.	.	.	.	.	.	2G/	Vt	4g\	Vt	.	.	.	.	4b\	-dar
*	*	*	*	*	*	*	*	*	*	*	*	*	*	*	*ij
2E\	con-	2C/	non	1C	-dar	.	.	4g\	non	1e	-fun-	2g/	.	2cc\	Vt
.	.	.	.	.	.	2c\	non	4e\	con-	.	.	.	.	.	.
2A\	-fun-	2AA/	con-	.	.	.	.	2c/	-fun-	.	.	2.a\	.	4cc\	non
.	.	.	.	.	.	4c\	con-	.	.	.	.	.	.	4a\	con-
=41-	=41-	=41-	=41-	=41-	=41-	=41-	=41-	=41-	=41-	=41-	=41-	=41-	=41-	=41-	=41-
*	*	*	*	*	*ij	*lig	*	*	*	*	*	*	*	*	*
0D	-dar	2.BB/	-fun-	4r	.	1B	-fun-	1d	-dar	00d	-dar	.	.	0dd	-fun-
.	.	.	.	4D/	Vt	.	.	.	.	.	.	4g/	.	.	.
.	.	.	.	2.d\	non	.	.	.	.	.	.	1g	.	.	.
.	.	4C/	.	.	.	.	.	.	.	.	.	.	.	.	.
.	.	1D	.	.	.	1A	.	1r	.	.	.	.	.	.	.
.	.	.	.	4d\	con-	.	.	.	.	.	.	.	.	.	.
.	.	.	.	2A/	-fun-	.	.	.	.	.	.	2f#X/	.	.	.
*	*Xij	*	*	*	*	*Xlig	*	*	*	*	*Xij	*	*	*	*
=42-	=42-	=42-	=42-	=42-	=42-	=42-	=42-	=42-	=42-	=42-	=42-	=42-	=42-	=42-	=42-
2r	.	1GG	-dar	1B	-dar	2G/	-dar	2r	.	.	.	1g	-dar	2dd\	-dar
*	*	*	*Xij	*	*Xij	*	*	*	*	*	*	*	*	*	*Xij
1G	Fi-	.	.	.	.	1B	Fi-	1g	Fi-	.	.	.	.	1dd	Fi-
.	.	0r	.	0r	.	.	.	.	.	.	.	0r	.	.	.
2F#X\	-at	.	.	.	.	2d\	-at	2a\	-at	.	.	.	.	2a\	-at
*custos:G	*	*	*	*	*	*	*	*	*	*	*	*	*	*	*
!LO:LB:g=original	!	!	!	!	!	!	!	!	!	!	!	!	!	!	!
=43-	=43-	=43-	=43-	=43-	=43-	=43-	=43-	=43-	=43-	=43-	=43-	=43-	=43-	=43-	=43-
2.G\	Do-	.	.	.	.	2.d\	Do-	2.g\	Do-	1r	.	.	.	2.b\	Do-
4E\	-mi-	.	.	.	.	4e\	-mi-	4g\	-mi-	.	.	.	.	4g/	-mi-
2Fny\	-ne	2r	.	2r	.	2c\	-ne	2f\	-ne	2r	.	2r	.	2a\	-ne
2G\	cor	1G\	Fi-	2G/	Fi-	2B\	cor	2d\	cor	1d\	Fi-	1dd\	Fi-	2g/	cor
=44-	=44-	=44-	=44-	=44-	=44-	=44-	=44-	=44-	=44-	=44-	=44-	=44-	=44-	=44-	=44-
1D	me-	.	.	1A	-at	1A	me-	1d	me-	.	.	.	.	1.dd	me-
.	.	2F#X\	-at	.	.	.	.	.	.	2d\	-at	2a\	-at	.	.
1GG	-um	2.G\	Do-	2.d\	Do-	1G	-um	2d\	-um	2.B/	Do-	2.b\	do-	.	.
.	.	.	.	.	.	.	.	2r	.	.	.	.	.	2g/	-um
.	.	4E\	-mi-	4e\	-mi-	.	.	.	.	4B/	-mi-	4g/	-mi-	.	.
=45-	=45-	=45-	=45-	=45-	=45-	=45-	=45-	=45-	=45-	=45-	=45-	=45-	=45-	=45-	=45-
2r	.	2Fny\	-ne	2c\	-ne	2r	.	2r	.	2A/	-ne	2a\	-ne	2r	.
*	*ij	*	*	*	*	*	*ij	*	*	*	*	*	*	*	*ij
1G	Fi-	2G\	cor	2B\	cor	1d	Fi-	2G/	Fi-	2d\	cor	2g/	cor	1dd	Fi-
.	.	1D	me-	1A	me-	.	.	1A	-at	1d	me-	1.dd	me-	.	.
2F#X\	-at	.	.	.	.	2d\	-at	.	.	.	.	.	.	2a\	-at
*	*	*	*	*	*	*	*	*custos:d	*	*	*	*	*	*	*
!	!	!	!	!	!	!	!	!LO:LB:g=original	!	!	!	!	!	!	!
=46-	=46-	=46-	=46-	=46-	=46-	=46-	=46-	=46-	=46-	=46-	=46-	=46-	=46-	=46-	=46-
2.G\	Do-	1GG	-um	1G	-um	2B\	Do-	2.d\	Do-	2d\	-um	.	.	2.b\	Do-
.	.	.	.	.	.	2G/	-mi-	.	.	2B/	im-	2g/	-um	.	.
4E\	-mi-	.	.	.	.	.	.	4e\	-mi-	.	.	.	.	4g/	-mi-
2Fny\	-ne	1r	.	2r	.	2c\	-ne	4c/	-ne	2A/	-ma-	1r	.	2a\	-ne
.	.	.	.	.	.	.	.	4A/	cor	.	.	.	.	.	.
2G\	cor	.	.	2G/	im-	4B\	cor	2d\	me-	4G/	-cu-	.	.	2b\	cor
.	.	.	.	.	.	2d\	me-	.	.	2g\	-la-	.	.	.	.
=47-	=47-	=47-	=47-	=47-	=47-	=47-	=47-	=47-	=47-	=47-	=47-	=47-	=47-	=47-	=47-
1D	me-	0r	.	2A/	-ma-	.	.	0d	-um	.	.	2r	.	1a	me-
.	.	.	.	.	.	8c\	.	.	.	8f#X\	.	.	.	.	.
.	.	.	.	.	.	8B\	.	.	.	8e\	.	.	.	.	.
*	*	*	*	*	*	*	*	*	*	*custos:f#	*	*	*	*	*
!	!	!	!	!	!	!	!	!	!	!LO:LB:g=original	!	!	!	!	!
.	.	.	.	4d\	-cu-	2A/	.	.	.	2f#X\	.	2dd\	im-	.	.
.	.	.	.	4c\	.	.	.	.	.	.	.	.	.	.	.
*	*	*	*	*	*	*custos:G	*	*	*	*	*	*	*	*custos:b	*
!	!	!	!	!	!	!LO:LB:g=original	!	!	!	!	!	!	!	!LO:LB:g=original	!
2GG/	-um	.	.	4B\	.	0G	-um	.	.	2g\	-tum	4dd\	-ma-	2b\	-um
.	.	.	.	4A/	.	.	.	.	.	.	.	4cc\	.	.	.
*	*Xij	*	*	*	*	*	*Xij	*	*	*	*	*	*	*	*Xij
2GG/	im-	.	.	4G/	.	.	.	.	.	2g\	im-	4b\	.	2b\	im-
.	.	.	.	4F/	.	.	.	.	.	.	.	4a\	.	.	.
*	*	*custos:F	*	*custos:E	*	*	*	*	*	*	*	*custos:g	*	*	*
!	!	!LO:LB:g=original	!	!LO:LB:g=original	!	!	!	!	!	!	!	!LO:LB:g=original	!	!	!
=48-	=48-	=48-	=48-	=48-	=48-	=48-	=48-	=48-	=48-	=48-	=48-	=48-	=48-	=48-	=48-
*	*	*	*	*lig	*	*	*	*	*	*	*	*	*	*	*
2C/	-ma-	2r	.	1E	.	.	.	1.e	im-	4g\	-ma-	2g/	.	1.cc	-ma-
.	.	.	.	.	.	.	.	.	.	4fny\	.	.	.	.	.
2C/	-cu-	1E	im-	.	.	.	.	.	.	4e\	.	2g/	-cu-	.	.
.	.	.	.	.	.	.	.	.	.	4d\	.	.	.	.	.
*	*	*	*	*col	*	*	*	*	*	*	*	*	*	*	*
1AA	-la-	.	.	2.A\	.	2r	.	.	.	2c/	.	2.a\	-la-	.	.
.	.	1A\	-ma-	.	.	2E/	im-	1c\	-ma-	2e\	-cu-	.	.	2a\	-cu-
*	*	*	*	*Xlig	*	*	*	*	*	*	*	*	*	*	*
.	.	.	.	4B\	.	.	.	.	.	.	.	8g/	.	.	.
.	.	.	.	.	.	.	.	.	.	.	.	8fny/	.	.	.
*	*	*	*	*Xcol	*	*	*	*	*	*	*	*	*	*	*
=49-	=49-	=49-	=49-	=49-	=49-	=49-	=49-	=49-	=49-	=49-	=49-	=49-	=49-	=49-	=49-
0AA	-tum	.	.	2c\	.	2e\	-ma-	.	.	0A	-la-	2e/	.	1a	-la-
.	.	2F\	-cu-	2.A/	-la-	1d	-cu-	2d\	-cu-	.	.	2a\	-tum	.	.
.	.	1E	-la-	.	.	.	.	1e	-la-	.	.	0r	.	1a	-tum
.	.	.	.	8G/	.	.	.	.	.	.	.	.	.	.	.
.	.	.	.	8F/	.	.	.	.	.	.	.	.	.	.	.
.	.	.	.	2E/	.	2c#X\	-la-	.	.	.	.	.	.	.	.
=50-	=50-	=50-	=50-	=50-	=50-	=50-	=50-	=50-	=50-	=50-	=50-	=50-	=50-	=50-	=50-
2r	.	1D	-tum	1A	-tum	2d\	-tum	2f#X\	-tum	1A	-tum	.	.	2r	.
2D/	Vt	.	.	.	.	2d\	Vt	2f#\	Vt	.	.	.	.	2dd\	Vt
4G\	non	2r	.	2r	.	4d\	non	1.g	non	2r	.	2r	.	4b\	non
4G\	con-	.	.	.	.	4d\	con-	.	.	.	.	.	.	4b\	con-
2C/	-fun-	2C/	Vt	2G/	Vt	2cny\	-fun-	.	.	2e\	Vt	2cc\	Vt	2ee\	-fun-
*custos:GG	*	*	*	*	*	*	*	*	*	*	*	*	*	*	*
!LO:LB:g=original	!	!	!	!	!	!	!	!	!	!	!	!	!	!	!
=51-	=51-	=51-	=51-	=51-	=51-	=51-	=51-	=51-	=51-	=51-	=51-	=51-	=51-	=51-	=51-
2GG/	-dar	4G\	non	1.G	non	2d\	-dar	.	.	4B/	non	4b\	non	2dd\	-dar
.	.	4G\	con-	.	.	.	.	.	.	4d\	con-	4b\	con-	.	.
*	*ij	*	*	*	*	*	*ij	*	*	*	*	*	*	*	*ij
2C/	Vt	2C/	-fun-	.	.	4r	.	2g\	con-	2e\	-fun-	2ee\	-fun-	2cc\	Vt
.	.	.	.	.	.	4c\	Vt	.	.	.	.	.	.	.	.
4G\	non	2GG/	-dar	.	.	4d\	non	1g	-fun-	2B/	-dar	2dd\	-dar	4b\	non
4G\	con-	.	.	.	.	4B\	con-	.	.	.	.	.	.	4b\	con-
*	*	*	*ij	*	*	*	*	*	*	*	*	*	*ij	*	*
2C/	-fun-	2C/	Vt	2G/	con-	2c\	-fun-	.	.	4r	.	2cc\	Vt	2ee\	-fun-
.	.	.	.	.	.	.	.	.	.	4g\	Vt	.	.	.	.
=52-	=52-	=52-	=52-	=52-	=52-	=52-	=52-	=52-	=52-	=52-	=52-	=52-	=52-	=52-	=52-
2GG/	-dar	4G\	non	1G	-fun-	4d\	-dar	1g	-dar	4g\	non	4b\	non	2dd\	-dar
.	.	4G\	con-	.	.	4B\	Vt	.	.	4d\	con-	4b\	con-	.	.
*	*Xij	*	*	*	*	*	*	*	*	*	*	*	*	*	*Xij
2C/	Vt	2C/	-fun-	.	.	4c\	non	.	.	4.e\	-fun-	2ee\	-fun-	2cc\	Vt
.	.	.	.	.	.	4G/	con-	.	.	.	.	.	.	.	.
.	.	.	.	.	.	.	.	.	.	8f\	.	.	.	.	.
1GG	non	1D	-dar	1G	-dar	2d\	-fun-	2r	.	1g	.	2dd\	-dar	1b	non
*	*	*	*Xij	*	*	*	*	*	*	*	*	*	*Xij	*	*
.	.	.	.	.	.	2B\	-dar	2d\	Vt	.	.	2dd\	Vt	.	.
*	*	*	*	*	*	*custos:c	*Xij	*	*	*	*	*	*	*	*
!	!	!	!	!	!	!LO:LB:g=original	!	!	!	!	!	!	!	!	!
=53-	=53-	=53-	=53-	=53-	=53-	=53-	=53-	=53-	=53-	=53-	=53-	=53-	=53-	=53-	=53-
1AA	con-	2r	.	2r	.	2r	.	2fny\	non	1c	-dar	2cc\	non	1a	con-
.	.	2A\	Vt	2C/	Vt	2c\	Vt	2e\	con-	.	.	1a	con-	.	.
*	*	*	*	*	*	*	*	*	*	*custos:d	*	*	*	*	*
!	!	!	!	!	!	!	!	!	!	!LO:LB:g=original	!	!	!	!	!
2.BB/	-fun-	2D/	non	4D/	non	2B\	non	0.d	-fun-	2r	.	.	.	0.dd	-fun-
.	.	.	.	4D/	con-	.	.	.	.	.	.	.	.	.	.
.	.	2D/	con-	1d\	-fun-	2B\	con-	.	.	2d\	Vt	1g\	-fin-	.	.
4C/	.	.	.	.	.	.	.	.	.	.	.	.	.	.	.
=54-	=54-	=54-	=54-	=54-	=54-	=54-	=54-	=54-	=54-	=54-	=54-	=54-	=54-	=54-	=54-
0D	.	0D	-fun-	.	.	0A	-fun-	.	.	2d\	non	.	.	.	.
.	.	.	.	4c\	.	.	.	.	.	2A/	con-	4f#X/	.	.	.
.	.	.	.	4B\	.	.	.	.	.	.	.	4e/	.	.	.
.	.	.	.	1A	.	.	.	.	.	1A	-fun-	1f#X	.	.	.
=55-	=55-	=55-	=55-	=55-	=55-	=55-	=55-	=55-	=55-	=55-	=55-	=55-	=55-	=55-	=55-
00GG	-dar.	00D	-dar.	00G	-dar.	00G	-dar.	00d	-dar.	00d	-dar.	00g	-dar.	00b	-dar.
==	==	==	==	==	==	==	==	==	==	==	==	==	==	==	==
*-	*-	*-	*-	*-	*-	*-	*-	*-	*-	*-	*-	*-	*-	*-	*-
!!!system-decoration: [(s1,s2,s3,s4,s5,s6,s7,s8)]
!!!ENC: Mateusz Solarz
!!!END: 2022-07-14
!!!ENC: Jan Barakat
!!!END: 2022-08-12
